tools/download-figma-icons/icons/outlined-medium/wave.svg

<svg width="24" height="25" viewBox="0 0 24 25" fill="none" xmlns="http://www.w3.org/2000/svg">
<path d="M22.0499 8.39997C21.7424 8.21247 21.4049 8.09997 21.0674 8.06247L21.3749 7.58247C22.1099 6.38997 21.7424 4.82997 20.5499 4.09497C20.2199 3.89247 19.8599 3.77997 19.4999 3.74247C19.7924 3.19497 19.8899 2.57247 19.7474 1.96497C19.5899 1.30497 19.1924 0.749966 18.6149 0.389966C18.0374 0.0299655 17.3549 -0.0750345 16.7024 0.0749655C16.0424 0.232466 15.4874 0.637466 15.1199 1.22247L14.7524 1.83747C14.5574 1.55997 14.3099 1.31247 14.0099 1.13247C12.8249 0.397466 11.2574 0.764965 10.5299 1.94997L6.30743 8.54997C6.23243 8.67747 6.09743 8.88747 6.00743 8.97747C5.99993 8.97747 5.99243 8.96997 5.98493 8.96247C5.49743 8.67747 5.26493 7.46247 5.24993 6.74997C5.24993 5.42997 4.85993 4.41747 4.09493 3.75747C2.96243 2.78247 1.45493 2.99247 1.38743 2.99997C1.01993 3.05997 0.749927 3.37497 0.749927 3.74997V14.235C0.742427 14.46 0.592427 19.74 5.00993 22.5075C6.58493 23.49 8.42243 24.0075 10.2599 24.0075C11.0024 24.0075 11.7524 23.925 12.4874 23.7525C14.7299 23.2275 16.5824 21.945 17.6999 20.1375L22.8674 11.9025C23.6024 10.71 23.2349 9.14997 22.0424 8.40747L22.0499 8.39997ZM21.5999 11.1L16.4324 19.335C15.5249 20.805 14.0024 21.855 12.1574 22.2825C9.99743 22.785 7.68743 22.4025 5.81243 21.225C2.13743 18.93 2.25743 14.3325 2.25743 14.2575V4.51497C2.53493 4.55997 2.85743 4.66497 3.11993 4.89747C3.53993 5.26497 3.75743 5.88747 3.75743 6.75747C3.75743 7.02747 3.81743 9.42747 5.22743 10.26C6.54743 11.04 7.30493 9.80997 7.58993 9.35247L11.7974 2.73747C12.0974 2.24997 12.7349 2.09997 13.2224 2.39997C13.4549 2.54247 13.6199 2.77497 13.6874 3.04497C13.7474 3.31497 13.7024 3.59247 13.5599 3.82497C13.5524 3.83997 13.5524 3.85497 13.5449 3.86997L9.97493 9.85497C9.76493 10.215 9.87743 10.6725 10.2374 10.8825C10.5974 11.0925 11.0549 10.98 11.2649 10.62L16.4024 1.99497C16.5449 1.76247 16.7774 1.59747 17.0399 1.52997C17.3099 1.46247 17.5874 1.51497 17.8199 1.65747C18.0524 1.79997 18.2174 2.03247 18.2849 2.30247C18.3524 2.57247 18.2999 2.84997 18.1499 3.08997L13.1324 11.4375C12.9224 11.79 13.0349 12.255 13.3874 12.465C13.5074 12.54 13.6424 12.57 13.7699 12.57C14.0249 12.57 14.2724 12.4425 14.4149 12.21L18.3224 5.70747H18.3299C18.4724 5.46747 18.7049 5.30247 18.9674 5.23497C19.2374 5.17497 19.5149 5.21997 19.7474 5.36247C19.9799 5.50497 20.1449 5.73747 20.2124 6.00747C20.2799 6.27747 20.2274 6.55497 20.0924 6.77997L18.5024 9.28497L15.1274 14.595C14.9024 14.9475 15.0074 15.4125 15.3599 15.63C15.4874 15.7125 15.6224 15.75 15.7649 15.75C16.0124 15.75 16.2524 15.63 16.4024 15.405L19.7924 10.08C20.0999 9.57747 20.8049 9.38997 21.2699 9.67497C21.7574 9.97497 21.9074 10.6125 21.6074 11.0925L21.5999 11.1Z" fill="black"/>
</svg>

<svg width="24" height="25" viewBox="0 0 24 25" fill="none" xmlns="http://www.w3.org/2000/svg"><path d="M22.05 8.4a2.4 2.4 0 0 0-.983-.338l.308-.48a2.532 2.532 0 0 0-.825-3.487 2.494 2.494 0 0 0-1.05-.353c.292-.547.39-1.17.247-1.777A2.527 2.527 0 0 0 18.615.39a2.526 2.526 0 0 0-1.913-.315 2.557 2.557 0 0 0-1.582 1.147l-.368.615a2.528 2.528 0 0 0-4.223.113l-4.222 6.6a2.71 2.71 0 0 1-.3.427c-.007 0-.015-.007-.022-.015-.488-.285-.72-1.5-.735-2.212 0-1.32-.39-2.333-1.155-2.993-1.133-.975-2.64-.765-2.708-.757a.758.758 0 0 0-.637.75v10.485c-.008.225-.158 5.505 4.26 8.273a9.964 9.964 0 0 0 5.25 1.5 9.76 9.76 0 0 0 2.227-.255c2.243-.526 4.095-1.808 5.213-3.616l5.167-8.235a2.543 2.543 0 0 0-.825-3.495l.008-.007Zm-.45 2.7-5.168 8.235c-.907 1.47-2.43 2.52-4.275 2.947-2.16.503-4.47.12-6.345-1.057-3.675-2.295-3.555-6.893-3.555-6.968V4.515c.278.045.6.15.863.382.42.368.637.99.637 1.86 0 .27.06 2.67 1.47 3.503 1.32.78 2.078-.45 2.363-.908l4.207-6.615a1.035 1.035 0 1 1 1.763 1.088c-.008.015-.008.03-.015.045l-3.57 5.985a.747.747 0 0 0 .262 1.027c.36.21.818.098 1.028-.262l5.137-8.625c.143-.233.375-.398.638-.465.27-.068.547-.015.78.127.232.143.397.375.465.645.067.27.015.548-.135.788l-5.018 8.348a.753.753 0 0 0 .255 1.027.754.754 0 0 0 1.027-.255l3.908-6.503h.008c.142-.24.375-.405.637-.472.27-.06.548-.015.78.127.233.143.398.375.465.645.068.27.015.548-.12.773l-1.59 2.505-3.375 5.31a.744.744 0 0 0 .233 1.035.73.73 0 0 0 .405.12c.247 0 .487-.12.637-.345l3.39-5.325c.308-.503 1.013-.69 1.478-.405.487.3.637.938.337 1.417l-.007.008Z" fill="currentColor"/></svg>
